svgs/trakt.svg

<svg width="192" height="192" viewBox="0 0 192 192" fill="none" xmlns="http://www.w3.org/2000/svg">
<path d="M39.4722 106.278L118.097 27.6528" stroke="black" stroke-width="12" stroke-linecap="round" stroke-linejoin="round"/>
<path d="M142.118 151.632C144.462 153.975 148.261 153.975 150.604 151.632C152.947 149.288 152.947 145.489 150.604 143.146L142.118 151.632ZM68.1185 77.6315L142.118 151.632L150.604 143.146L76.6038 69.1462L68.1185 77.6315Z" fill="black"/>
<path d="M92.9167 73.3889L121.694 44.6111" stroke="black" stroke-width="12" stroke-linecap="round" stroke-linejoin="round"/>
<path d="M103.194 84.1806L125.806 61.5694" stroke="black" stroke-width="12" stroke-linecap="round" stroke-linejoin="round"/>
<path d="M43.5833 143.278L72.3611 114.5L121.694 163.833" stroke="black" stroke-width="12" stroke-linecap="round" stroke-linejoin="round"/>
<path d="M43.5833 122.722L72.3611 93.9444L135.056 156.639" stroke="black" stroke-width="12" stroke-linecap="round" stroke-linejoin="round"/>
<path d="M22 96C22 136.869 55.1309 170 96 170C136.869 170 170 136.869 170 96C170 55.1309 136.869 22 96 22C55.1309 22 22 55.1309 22 96Z" stroke="black" stroke-width="12"/>
</svg>

<svg xmlns="http://www.w3.org/2000/svg" width="192" height="192" fill="none" viewBox="0 0 192 192"><path stroke="#000" stroke-linecap="round" stroke-linejoin="round" stroke-width="12" d="m39.472 106.278 78.625-78.625"/><path fill="#000" d="M142.118 151.632a6.001 6.001 0 0 0 8.486-8.486l-8.486 8.486Zm-74-74 74 74 8.486-8.486-74-74-8.486 8.486Z"/><path stroke="#000" stroke-linecap="round" stroke-linejoin="round" stroke-width="12" d="m92.917 73.389 28.777-28.778m-18.5 39.569 22.612-22.61m-82.223 81.708L72.361 114.5l49.333 49.333"/><path stroke="#000" stroke-linecap="round" stroke-linejoin="round" stroke-width="12" d="m43.583 122.722 28.778-28.778 62.695 62.695"/><path stroke="#000" stroke-width="12" d="M22 96c0 40.869 33.13 74 74 74 40.869 0 74-33.131 74-74 0-40.87-33.131-74-74-74-40.87 0-74 33.13-74 74Z"/></svg>
